X: 8594
T: Cronin's
R: reel
M: 4/4
K: Dmajor
D3D F2A2|defe dcBA|BcBA B2b2|afde fee2|
D3D F2A2|defe dcBA|BcBA BcdB|AGFE ADD2:|
|:a3b agfa|gfeg fedc|BcBA B2b2|afde fee2|
a3b agfa|gfeg fedc|BcBA BcdB|AGFE ADD2:|
D3E FA A2|defe dBBd|BdAd Bb b2|afde fe e2|
DCDE FA A2|defe dBBd|BdAd Bb b2|afde fd d2:|
|:a3b afed|gfed fd d2|BdAd Bb b2|afde fe e2|
a3b afed|gfed fd d2|BdAd Bb b2|afde fd d2:|

